X: 18959
T: Inis Bearachain, The
R: jig
M: 6/8
K: Amajor
E|ABc ecB|AcA BAF|E2E ABc|efa baf|
eae fec|AcA BAF|E2E ecA|BcB A2:|
f|ecB Ace|f2f fec|B2B Bce|f2e fga|
fec ecB|AcA BAF|E2E ecA|BcB A2:|

